shutdown-ui/icons/system-shutdown.svg

<svg version="1.1" viewBox="0 0 32 32" xmlns="http://www.w3.org/2000/svg">
 <defs>
  <style id="current-color-scheme" type="text/css">.ColorScheme-Text {
        color:#dedede;
      }</style>
 </defs>
 <path class="ColorScheme-Text" d="m15 4v0.05078 1.0039 7.9453h2v-7.9492-1.0039-0.046875h-1-1zm3 0.16992v1.0215a11 11 0 0 1 9 10.809 11 11 0 0 1-11 11 11 11 0 0 1-11-11 11 11 0 0 1 9-10.811v-1.0078a12 12 0 0 0-10 11.818 12 12 0 0 0 12 12 12 12 0 0 0 12-12 12 12 0 0 0-10-11.83z" fill="#fff"/>
</svg>

<svg xmlns="http://www.w3.org/2000/svg" viewBox="0 0 32 32">
  <defs
     id="defs3051">
    <style
       type="text/css"
       id="current-color-scheme">
      .ColorScheme-Text {
        color:#dedede;
      }
      </style>
  </defs>
  <path
     style="fill:currentColor;fill-opacity:1;stroke:none" 
     d="M 15,4 15,4.05078 15,5.054686 15,13 17,13 17,5.050781 17,4.046875 17,4 16,4 15,4 Z m 3,0.169922 0,1.021484 A 11,11 0 0 1 27,16 11,11 0 0 1 16,27 11,11 0 0 1 5,16 11,11 0 0 1 14,5.189453 L 14,4.181641 A 12,12 0 0 0 4,16 12,12 0 0 0 16,28 12,12 0 0 0 28,16 12,12 0 0 0 18,4.169922 Z"
     class="ColorScheme-Text"
     />
</svg>
